X:18
T:RVW2/2/18 The Tarry Sailor
C:Mr. Pottipher (?) [Pottiphar], Ingrave (?) Essex, 24 March 1904
L:1/8
Q:1/4=100
M:3/4
I:linebreak $
K:G
"^(Editorial suggestion) " d>c | BA G2 dc | BA G2 dd |[M:4/4] e2 dc B>A GB |$[M:3/4] A4 d>d | 
e2 d2 B>A | dB G2 AB | c2 E2 F2 | G4 |] 



